images/icons/select-arrow.svg

<svg width="10" height="7" viewBox="0 0 10 7" fill="none" xmlns="http://www.w3.org/2000/svg">
<path d="M5.49342 5.825L9.34082 1.325C9.5864 1.025 9.5864 0.525 9.34082 0.225C9.09524 -0.075 8.68594 -0.075 8.44036 0.225L5.00227 4.225L1.56417 0.225C1.31859 -0.075 0.909297 -0.075 0.663719 0.225C0.581859 0.425 0.5 0.625 0.5 0.825C0.5 1.025 0.581859 1.225 0.663719 1.325L4.51111 5.825C4.83855 6.125 5.16599 6.125 5.49342 5.825Z" fill="black"/>
</svg>

<svg width="10" height="7" viewBox="0 0 10 7" fill="none" xmlns="http://www.w3.org/2000/svg"><path d="m5.5 5.83 3.84-4.5c.25-.3.25-.8 0-1.1a.56.56 0 0 0-.9 0L5 4.22l-3.44-4a.56.56 0 0 0-.9 0C.58.43.5.63.5.82c0 .2.08.4.16.5l3.85 4.5c.33.3.66.3.98 0Z" fill="#000"/></svg>
